X:616
T: AUF DIESER WELT HAB ICH KEIN FREUD
N: E0569B
O: Europa, Mitteleuropa, Deutschland, Helgoland
R: Liebes - Lied, Trennung
M: 3/4
L: 1/16
K: Bb
F4 | B3AB4c4 | d2f2e2
d2c2B2 | c4e4d2c2 | B4z2
fed2d2 | d3ef2edc2c2 | c3de2
e2d2c2 | B4d4c2c2 | B4z2
fed2d2 | d3ef2edc2c2 | c3de2
e2d2c2 | B4d4c2c2 | B4z4

